!!!!SEGMENT: pl-sa--172-a-v-2--010_szczurowski-jacek--msza-swiateczna-sanctus.krn
!!!cenid: 17xx:270
!!!COM: Szczurowski, Jacek
!!!COM-rismid: pe30017605
!!!CDT: 1716/08/15-~1733
!!!CNT: Polish
!!!OPR: Msza świąteczna
!!!OTL: Sanctus
!!!OMV: 010
!!!PDT:
!!!AGN: Sacred; Mass
!!!SMS-siglum: PL-SA
!!!SMS-shelfmark: 172/A V 2
!!!SMS-shelfwork: 001-010 M
!!!NIFC-rismid:
!!!URL-scan: http://bc.bdsandomierz.pl/dlibra/publication/1506/edition/1474/content
!!!ONB-nifc: UWAGA: części Mszy: Kyrie, Christe, Et in terra, Laudamus, Qui tollis, Quoniam, Patrem, Et Incarnatus, Ressurexit, Sanctus, Osanna, Benedictus, Agnus Dei
**kern	**fba	**kern	**kern	**kern	**text	**kern	**text	**kern	**kern
*part7	*part7	*part6	*part5	*part4	*part4	*part3	*part3	*part2	*part1
*staff7	*	*staff6	*staff5	*staff4	*staff4	*staff3	*staff3	*staff2	*staff1
*Iorgan	*	*Ivioln	*Ivioln	*Isoprn	*	*Isoprn	*	*Icor	*Icor
*I"Organo:	*	*I"Violino 2di	*I"Violino Primo	*I"Soprano 2do.	*	*I"Soprano Primo.	*	*I"Corno 2do Ex D:	*I"Corno Primo Ex D:
*I'Org	*	*I'V-no 2	*I'V-no 1	*I'S 2	*	*I'S 1	*	*I'C 2 in D	*I'C 1 in D
*clefF4	*	*clefG2	*clefG2	*clefC1	*	*clefC1	*	*clefG2	*clefG2
*	*	*	*	*	*	*	*	*ITrd6c10	*ITrd6c10
*k[f#c#]	*	*k[f#c#]	*k[f#c#]	*k[f#c#]	*	*k[f#c#]	*	*k[f#c#]	*k[f#c#]
*D:	*	*D:	*D:	*D:	*	*D:	*	*D:	*D:
*M3/4	*	*M3/4	*M3/4	*M3/4	*	*M3/4	*	*M3/4	*M3/4
=1	=1	=1	=1	=1	=1	=1	=1	=1	=1
*	*	*	*	*	*	*2\right	*	*	*
!LO:TX:a:t=adagio	!	!LO:TX:a:t=adagio	!	!LO:TX:rj:a:t=adagio	!	!LO:TX:a:t=adagio	!	!LO:TX:a:t=adagio	!LO:TX:a:t=adagio
4D/	.	8.f#/L	8.dd\L	2.f#/	San-	2.dd\	San-	4d\	4f#\
.	.	16f#/K	16dd\K	.	.	.	.	.	.
4D/	.	8.f#/	8.dd\	.	.	.	.	4d\	4f#\
.	.	16f#/K	16dd\K	.	.	.	.	.	.
4D/	.	8.f#/	8.dd\	.	.	.	.	4d\	4f#\
.	.	16f#/Jk	16dd\Jk	.	.	.	.	.	.
!	!	!LO:LB:g=original	!	!	!	!	!	!	!
=2	=2	=2	=2	=2	=2	=2	=2	=2	=2
4F#\	5-	8.a/L	8.ccn\L	2.a/	.	2.ccn\	.	4d\	4a\
.	.	16a/K	16cc\K	.	.	.	.	.	.
4F#\	.	8.a/	8.cc\	.	.	.	.	4d\	4a\
.	.	16a/K	16cc\K	.	.	.	.	.	.
4F#\	.	8.a/	8.cc\	.	.	.	.	4d\	4a\
.	.	16a/Jk	16cc\Jk	.	.	.	.	.	.
!	!	!	!LO:LB:g=original	!	!	!	!	!	!LO:LB:g=original
=3	=3	=3	=3	=3	=3	=3	=3	=3	=3
*	*	*	*	*2\right	*	*	*	*	*
4G\	.	8.g/L	8.b\L	2b\	.	2dd\	.	4d\	4b\
.	.	16b/K	16dd\K	.	.	.	.	.	.
4G\	.	8.b/	8.dd\	.	.	.	.	4d\	4b\
.	.	16b/K	16dd\K	.	.	.	.	.	.
4G\	.	8.b/	8.dd\	4b\	-ctus	4dd\	-ctus	4d\	4b\
.	.	16b/Jk	16dd\Jk	.	.	.	.	.	.
=4	=4	=4	=4	=4	=4	=4	=4	=4	=4
4G#X\	6	8.b/L	8.ee\L	4.b\	do-	4.ee\	Do-	4e\	4b\
.	.	16b/K	16ee\K	.	.	.	.	.	.
4G#\	.	8.b/	8.ee\	.	.	.	.	4e\	4b\
.	.	.	.	8b\	-mi-	8ee\	-mi-	.	.
.	.	16b/K	16ee\K	.	.	.	.	.	.
!	!	!	!	!	!	!LO:N:vis=8	!	!	!
4G#\	.	8.b/	8.ee\	4b\	-nus	4ee\	-nus	4e\	4b\
.	.	16b/Jk	16ee\Jk	.	.	.	.	.	.
!	!	!	!	!	!	!	!	!LO:LB:g=original	!
=5	=5	=5	=5	=5	=5	=5	=5	=5	=5
!!pagebreak:original
4A\	.	8.cc#\L	8.ee\L	2cc#\	De-	2ee\	De-	4e\	4cc#\
.	.	16cc#\K	16ee\K	.	.	.	.	.	.
4A\	.	8.cc#\	8.ee\	.	.	.	.	4e\	4cc#\
.	.	16cc#\K	16ee\K	.	.	.	.	.	.
4A\	.	8.cc#\	8.ee\	4cc#\	-us	4ee\	-us	4e\	4cc#\
.	.	16cc#\Jk	16ee\Jk	.	.	.	.	.	.
=6	=6	=6	=6	=6	=6	=6	=6	=6	=6
4A#X\	6	8.cc#\L	8.ff#\L	2.cc#\	Sa-	2.ff#\	Sa-	4f#\	4cc#\
.	.	16cc#\K	16ff#\K	.	.	.	.	.	.
4A#\	.	8.cc#\	8.ff#\	.	.	.	.	4f#\	4cc#\
.	.	16cc#\K	16ff#\K	.	.	.	.	.	.
4A#\	.	8.cc#\	8.ff#\	.	.	.	.	4f#\	4cc#\
.	.	16cc#\Jk	16ff#\Jk	.	.	.	.	.	.
=7	=7	=7	=7	=7	=7	=7	=7	=7	=7
4B\	.	8.dd\L	8.ff#\L	2.dd\	.	2.ff#\	.	4d\	4b\
.	.	16dd\K	16ff#\K	.	.	.	.	.	.
4B\	.	8.dd\	8.ff#\	.	.	.	.	4d\	4f#\
.	.	16dd\K	16ff#\K	.	.	.	.	.	.
4B\	.	8.dd\	8.ff#\	.	.	.	.	4d\	4f#\
.	.	16dd\Jk	16ff#\Jk	.	.	.	.	.	.
=8	=8	=8	=8	=8	=8	=8	=8	=8	=8
4B\	6	8.dd\L	8.gg\L	2.dd\	-ba-	2.gg\	-ba-	4d\	4g\
.	.	16dd\K	16gg\K	.	.	.	.	.	.
4B\	.	8.dd\	8.gg\	.	.	.	.	4d\	4g\
.	.	16dd\K	16gg\K	.	.	.	.	.	.
4B\	.	8.dd\	8.gg\	.	.	.	.	4d\	4g\
.	.	16dd\Jk	16gg\Jk	.	.	.	.	.	.
=9	=9	=9	=9	=9	=9	=9	=9	=9	=9
4c#\	5	8.ee\L	8.gg\L	2.ee\	.	2.gg\	.	4e\	4g\
.	.	16ee\Jk	16gg\K	.	.	.	.	.	.
!	!	!LO:LB:g=original	!	!	!	!	!	!	!
4c#\	.	8.ee\L	8.gg\	.	.	.	.	4e\	4g\
.	.	16ee\K	16gg\K	.	.	.	.	.	.
4c#\	.	8.ee\	8.gg\	.	.	.	.	4e\	4g\
.	.	16ee\Jk	16gg\Jk	.	.	.	.	.	.
=10	=10	=10	=10	=10	=10	=10	=10	=10	=10
*2\right	*	*2\right	*2\right	*	*	*	*	*2\right	*2\right
2.d;\	.	2.dd;\	2.ff#;\	2.dd;\	-oth	2.ff#\	-oht	2.d;\	2.f#;\
!LO:LB:g=original	!	!	!LO:PB:g=original	!LO:LB:g=original	!	!LO:LB:g=original	!	!	!
=11:|!|:	=11:|!|:	=11:|!|:	=11:|!|:	=11:|!|:	=11:|!|:	=11:|!|:	=11:|!|:	=11:|!|:	=11:|!|:
*M2/4	*	*M2/4	*M2/4	*M2/4	*	*M2/4	*	*M2/4	*M2/4
!	!	!	!LO:TX:a:t=allo	!	!	!LO:TX:rj:a:t=allo	!	!	!
!	!	!LO:TX:a:t=allo	!LO:TX:rj:b:t=Pleni	!	!	!	!	!LO:TX:a:t=allo	!LO:TX:a:t=allo
8r	.	8a/	8a/	8r	.	8r	.	8r	8r
=12	=12	=12	=12	=12	=12	=12	=12	=12	=12
!	!	!	!	!LO:TX:a:t=2	!	!LO:TX:a:t=2	!	!	!
!LO:TX:a:t=allo	!	!	!	!LO:N:vis=0	!	!LO:N:vis=0	!	!	!
8d\L	.	8dd\L	8dd\L	1r	.	1r	.	8d\L	8f#\L
16d\L	.	16dd\L	16dd\L	.	.	.	.	16d\L	16f#\L
16d\JJ	.	16dd\JJ	16dd\JJ	.	.	.	.	16d\JJ	16f#\JJ
16d\LL	.	16dd\LL	16dd\LL	.	.	.	.	16d\LL	16f#\LL
16d\	.	16dd\	16dd\	.	.	.	.	16d\	16f#\
16d\	.	16dd\	16dd\	.	.	.	.	16d\	16f#\
16d\JJ	.	16dd\JJ	16dd\JJ	.	.	.	.	16d\JJ	16f#\JJ
=13	=13	=13	=13	=13	=13	=13	=13	=13	=13
8d\L	.	8dd\L	8dd\L	.	.	.	.	8d\	8f#\
16c#\L	.	16cc#\L	16cc#\L	.	.	.	.	8r	8r
16B\JJ	.	16b\JJ	16b\JJ	.	.	.	.	.	.
16A\LL	.	16a/LL	16a/LL	.	.	.	.	4r	4r
16G\	.	16g/	16g/	.	.	.	.	.	.
16F#\	.	16f#/	16f#/	.	.	.	.	.	.
16E\JJ	.	16e/JJ	16e/JJ	.	.	.	.	.	.
=14	=14	=14	=14	=14	=14	=14	=14	=14	=14
!LO:SIC:o=:v: grupa szesnastkowa	!	!	!	!	!	!	!	!	!
!LO:N:vis=16	!	!	!	!	!	!	!	!	!
8F#\L	.	8f#/L	8f#/L	4r	.	4r	.	4r	4r
!LO:N:vis=16	!	!	!	!	!	!	!	!	!
8D\	.	8d/J	8d/J	.	.	.	.	.	.
!LO:N:vis=16	!	!	!	!	!	!	!	!	!
8D\	.	8r	8r	8r	.	8r	.	8r	8r
!LO:N:vis=16	!	!	!	!	!	!	!	!	!
8A\J	4	8dd\	8ff#\	8dd\	ple-	8ff#\	ple-	8d\	8f#\
=15	=15	=15	=15	=15	=15	=15	=15	=15	=15
8A\L	4	8dd\L	8ff#\L	8dd\L	.	8ff#\L	.	8d\L	8f#\L
8A\	3	8cc#\	8ee\	8cc#\J	.	8ee\J	.	8A\	8e\
8A\	7	8ee\	8gg\	8ee\L	-ni	8gg\L	-ni	8e\	8g\
8A\J	4	8dd\J	8ff#\J	8dd\J	.	8ff#\J	.	8d\J	8f#\J
=16	=16	=16	=16	=16	=16	=16	=16	=16	=16
!LO:TX:t=P:mixed baem:problem	!	!	!	!	!	!	!	!	!
8A\L	.	8dd\L	8ff#\L	8dd\L	Sunt	8ff#\L	Sunt	8d/L	8f#\L
8A\	3	8cc#\J	8ee\J	8cc#\J	.	8ee\J	.	8A/J	8e\J
8A\	.	8r	8r	8r	.	8r	.	4r	4r
8AA/J	4	8d/	8f#/	8dd\	coe-	8ff#\	coe-	.	.
=17	=17	=17	=17	=17	=17	=17	=17	=17	=17
!	!	!	!	!	!	!	!	!LO:TX:a:t=1	!LO:TX:a:t=1
8AA/L	4	8d/L	8f#/L	8ee\L	.	8ff#\L	.	2r	2r
8AA/	3	8c#/	8e/	8cc#\J	.	8ee\J	.	.	.
8AA/	7	8e/	8g/	8ee\	-li	8gg\	-li	.	.
8AA/J	4	8d/J	8f#/J	8dd\	et	8ff#\	et	.	.
=18	=18	=18	=18	=18	=18	=18	=18	=18	=18
!LO:TX:t=P:mixed baem:problem	!	!	!	!	!	!	!	!	!
8AA/L	4	8d/L	8f#/L	8dd\	ter-	8ff#\	ter-	4r	4r
8AA/	3	8c#/J	8e/J	8cc#\	-ra	8ee\	-ra	.	.
8A\	6	8r	8r	8r	.	8r	.	8r	8r
8G#X\J	7	8dd\	8ffn\	8dd\	glo-	8ffn\	glo-	8d\	8fX\
=19	=19	=19	=19	=19	=19	=19	=19	=19	=19
*M3/4	*	*M3/4	*M3/4	*M3/4	*	*M3/4	*	*M3/4	*M3/4
!	!	!	!LO:SIC:s=:v:8.ffn	!	!	!	!	!	!
!LO:TX:a:t=adagio	!	!LO:TX:a:t=adagio	!LO:TX:a:t=ada	!LO:TX:a:t=adagio	!	!LO:TX:rj:b:t=adagio	!	!	!
4G#X\	.	8.dd\L	8.ff#\L	4dd\	.	4ffn\	.	2.d\	2.fX\
!	!	!	!LO:SIC:s=:v:16ffn	!	!	!	!	!	!
.	.	16dd\K	16ff#\Jk	.	.	.	.	.	.
!	!	!	!LO:LB:g=original	!	!	!	!	!	!
!	!	!	!LO:SIC:s=:v:8.ffn	!	!	!	!	!	!
4G#\	.	8.dd\	8.ff#\L	4dd\	-ri-	4ff\	-ri-	.	.
!	!	!	!LO:SIC:s=:v:16ffn	!	!	!	!	!	!
.	.	16dd\Jk	16ff#\K	.	.	.	.	.	.
!	!	!LO:LB:g=original	!	!	!	!	!	!	!
!	!	!	!LO:SIC:s=:v:8.ffn	!	!	!	!	!	!
4G#\	.	8.dd\L	8.ff#\	4dd\	-a	4ff\	-a	.	.
!	!	!	!LO:SIC:s=:v:16ffn	!	!	!	!	!	!
.	.	16dd\Jk	16ff#\Jk	.	.	.	.	.	.
=20	=20	=20	=20	=20	=20	=20	=20	=20	=20
!	!	!	!	!	!	!LO:SIC:s=:v:8.ffn	!	!	!
4A\	.	8.dd\L	8.ffn\L	8.dd\L	tu-	8.ff#\L	tu-	8.d/L	8.fX\L
.	.	16cc#\Jk	16ee\Jk	16cc#\Jk	.	16ee\Jk	.	16A/Jk	16e\Jk
4AA/	.	4cc#\	4ee\	4cc#\	-a	4ee\	-a	4A/	4e\
!	!	!	!	!	!	!	!	!LO:LB:g=original	!
4AA/	.	8r	8r	8r	.	8r	.	8r	8r
!	!	!	!	!	!	!	!	!	!LO:LB:g=original
.	.	8cc#\	8ee\	8cc#\	glo-	8ee\	glo-	8A/	8e\
!LO:LB:g=original	!	!	!	!LO:PB:g=original	!	!LO:LB:g=original	!	!	!
=21	=21	=21	=21	=21	=21	=21	=21	=21	=21
4A\	.	8.cc#\L	8.ee\L	8.cc#\L	.	8.ee\L	.	8.A/L	8.e\L
.	.	16dd\K	16ff#\K	16dd\Jk	.	16ff#X\Jk	.	16d/K	16f#\K
!	!	!	!	!	!	!	!	!	!LO:SIC:s=:v:8.ee-
4A\	.	8.dd\	8.ff#\	8.dd\L	-ri-	8.ff#\L	-ri-	8.d/	8.f#\
.	.	16ee\K	16gg\K	16ee\Jk	.	16gg\Jk	.	16e/K	16g\K
4A\	.	8.ee\	8.gg\	8.ee\L	-a	8.gg\L	-a	8.e/	8.g\
.	.	16dd\Jk	16ff#\J	16dd\Jk	.	16ff#\Jk	.	16d/Jk	16f#\Jk
=22	=22	=22	=22	=22	=22	=22	=22	=22	=22
!!pagebreak:original
4A\	.	8.dd\L	8.ff#X\L	8.dd\L	tu-	8.ff#\L	tu-	8.d/L	8.f#\L
.	.	16cc#\Jk	16ee\Jk	16cc#\Jk	.	16ee\Jk	.	16A/Jk	16e\Jk
4A\	.	4cc#\	4ee\	4cc#\	-a	4ee\	-a	4A/	4e\
4AA/	.	8r	8r	8r	.	8r	.	4r	4r
.	.	8e/	8cc#\	8e/	glo-	8cc#\	glo-	.	.
=23	=23	=23	=23	=23	=23	=23	=23	=23	=23
!	!	!	!	!	!	!	!	!LO:TX:a:t=1	!LO:TX:a:t=1
4AA/	.	8.e/L	8.cc#\L	8.e/L	.	8.cc#\L	.	2.r	2.r
.	.	16f#/K	16dd\K	16f#/Jk	.	16dd\Jk	.	.	.
4AA/	.	8.f#/	8.dd\	8.f#/L	-ri-	8.dd\L	-ri-	.	.
.	.	16g/K	16ee\K	16g/Jk	.	16ee\Jk	.	.	.
4AA/	.	8.g/	8.ee\	8.g/L	-a	8.ee\L	-a	.	.
.	.	16f#/Jk	16dd\Jk	16f#/Jk	.	16dd\Jk	.	.	.
=24	=24	=24	=24	=24	=24	=24	=24	=24	=24
4AA/	.	8.f#/L	8.dd\L	8.f#/L	tu-	8.dd\L	tu-	4r	4r
.	.	16e/Jk	16cc#\Jk	16e/Jk	.	16cc#\Jk	.	.	.
4AA/	.	4e/	4cc#\	4e/	-a	4cc#\	-a	4r	4r
4AA/	.	8r	8r	8r	.	8r	.	8r	8r
.	.	8e/	8cc#\	8e/	glo-	8cc#\	glo-	8e\	8cc#\
=25	=25	=25	=25	=25	=25	=25	=25	=25	=25
4A\	.	8.a\L	8.cc#\L	8.a\L	-ri-	8.cc#\L	-ri-	4e\	4cc#\
.	.	16cc#\K	16ee\K	16cc#\Jk	.	16ee\Jk	.	.	.
4Gn\	2	8.cc#\	8.ee\	2cc#\	-a	2ee\	-a	4e\	4cc#\
.	.	16cc#\K	16ee\K	.	.	.	.	.	.
4G\	.	8.cc#\	8.ee\	.	.	.	.	4e\	4cc#\
.	.	16cc#\Jk	16ee\Jk	.	.	.	.	.	.
=26	=26	=26	=26	=26	=26	=26	=26	=26	=26
4F#\	6	8.a/L	8.dd\L	2.a\	tu-	2.dd\	tu-	4f#\	4dd\
.	.	16a/K	16dd\K	.	.	.	.	.	.
4F#\	.	8.a/	8.dd\	.	.	.	.	4f#\	4dd\
.	.	16a/K	16dd\K	.	.	.	.	.	.
4F#\	.	8.a/	8.dd\	.	.	.	.	4f#\	4dd\
.	.	16a/Jk	16dd\Jk	.	.	.	.	.	.
!	!	!LO:LB:g=original	!LO:LB:g=original	!	!	!	!	!	!
=27	=27	=27	=27	=27	=27	=27	=27	=27	=27
4G\	6	8.ee\L	8.gg\L	2.ee\	.	2.gg\	.	4e\	4g\
.	.	16ee\K	16gg\K	.	.	.	.	.	.
4G\	.	8.ee\	8.gg\	.	.	.	.	4e\	4g\
.	.	16ee\K	16gg\K	.	.	.	.	.	.
4G\	.	8.ee\	8.gg\	.	.	.	.	4e\	4g\
.	.	16ee\Jk	16gg\Jk	.	.	.	.	.	.
=28	=28	=28	=28	=28	=28	=28	=28	=28	=28
4A\	4	8.dd\L	8.ff#\L	2.dd\	.	2.ff#\	.	4d\	4f#\
.	.	16dd\K	16ff#\K	.	.	.	.	.	.
4A\	.	8.dd\	8.ff#\	.	.	.	.	4d\	4f#\
.	.	16dd\K	16ff#\K	.	.	.	.	.	.
4A\	.	8.dd\	8.ff#\	.	.	.	.	4d\	4f#\
.	.	16dd\Jk	16ff#\Jk	.	.	.	.	.	.
!	!	!	!	!LO:LB:g=original	!	!	!	!	!
=29	=29	=29	=29	=29	=29	=29	=29	=29	=29
4AA/	3	8.cc#\L	8.ee\L	2.cc#\	.	2.ee\	.	4A/	4e\
.	.	16cc#\K	16ee\K	.	.	.	.	.	.
4AA/	.	8.cc#\	8.ee\	.	.	.	.	4A/	4e\
.	.	16cc#\K	16ee\K	.	.	.	.	.	.
4AA/	.	8.cc#\	8.ee\	.	.	.	.	4A/	4e\
.	.	16cc#\Jk	16ee\Jk	.	.	.	.	.	.
!	!	!	!	!	!	!LO:LB:g=original	!	!	!
=30	=30	=30	=30	=30	=30	=30	=30	=30	=30
!	!	!	!	!	!	!	!	!	!LO:SIC:s=:v:2cc
2D/	.	2dd\	2dd\	2dd\	-a	2dd\	-a	2F#/	2e\
!	!	!LO:SIC:o=:v: brak pauzy	!	!	!	!	!	!	!
4r	.	4ryy	4r	4r	.	4r	.	4r	4r
==	==	=:|!|:	=:|!|:	=:|!|:	=:|!|:	=:|!|:	=:|!|:	=:|!|:	=:|!|:
*-	*-	*-	*-	*-	*-	*-	*-	*-	*-
!!!system-decoration: [(s1,s2)][(s3,s4)][(s5,s6)]s7
!!!RDF**kern: > = above
!!!RDF**kern: < = below
!!!EED: Leszek Kubiak
!!!EST: 2020-10-01
!!!AIN: 2 cor 1 organ 2 soprn 2 violn
!!!ENC: Krzysztof Stępień
!!!END: 2020-04-16
